img/ic_car.svg

<svg width="24" height="18" viewBox="0 0 24 18" fill="none" xmlns="http://www.w3.org/2000/svg">
<path d="M1.25184 8.08677C1.25824 8.07739 1.26468 8.06802 1.27115 8.05868L1.25184 8.08677ZM1.25184 8.08677C0.562223 8.06739 0.00911548 7.53887 0 6.88619L1.25184 8.08677ZM3.54736 5.67474C4.13691 4.26404 4.87795 2.72902 5.30192 2.14428C6.01602 1.17786 7.06331 0.889511 7.86975 0.75641C9.23295 0.560131 10.6118 0.476257 11.9905 0.50576L12.0012 0.505988L12.0118 0.505763C13.3881 0.476655 14.7645 0.560527 16.1253 0.75641C16.93 0.889244 17.98 1.18417 18.6948 2.14653C18.901 2.42627 19.1902 2.94686 19.5109 3.5973C19.8272 4.23867 20.16 4.97681 20.4536 5.67L20.7357 6.33616L21.2591 5.83679C21.5382 5.57053 21.9175 5.40735 22.3247 5.38607H22.3251H22.326H22.3269H22.3279H22.3288H22.3297H22.3306H22.3315H22.3324H22.3333H22.3342H22.3351H22.336H22.3369H22.3378H22.3387H22.3396H22.3405H22.3414H22.3423H22.3432H22.3441H22.345H22.3459H22.3468H22.3477H22.3486H22.3495H22.3505H22.3514H22.3523H22.3532H22.3541H22.355H22.3559H22.3568H22.3577H22.3586H22.3595H22.3604H22.3613H22.3622H22.3631H22.364H22.3649H22.3658H22.3667H22.3676H22.3685H22.3694H22.3703H22.3712H22.3722H22.3731H22.374H22.3749H22.3758H22.3767H22.3776H22.3785H22.3794H22.3803H22.3812H22.3821H22.383H22.3839H22.3848H22.3857H22.3866H22.3875H22.3884H22.3893H22.3902H22.3911H22.392H22.3929H22.3939H22.3948H22.3957H22.3966H22.3975H22.3984H22.3993H22.4002H22.4011H22.402H22.4029H22.4038H22.4047H22.4056H22.4065H22.4074H22.4083H22.4092H22.4101H22.411H22.4119H22.4128H22.4137H22.4146H22.4155H22.4165H22.4174H22.4183H22.4192H22.4201H22.421H22.4219H22.4228H22.4237H22.4246H22.4255H22.4264H22.4273H22.4282H22.4291H22.43H22.4309H22.4318H22.4327H22.4336H22.4345H22.4354H22.4363H22.4372H22.4382H22.4391H22.44H22.4409H22.4418H22.4427H22.4436H22.4445H22.4454H22.4463H22.4472H22.4481H22.449H22.4499H22.4508H22.4517H22.4526H22.4535H22.4544H22.4553H22.4562H22.4571H22.458H22.4589H22.4599H22.4608H22.4617H22.4626H22.4635H22.4644H22.4653H22.4662H22.4671H22.468H22.4689H22.4698H22.4707H22.4716H22.4725H22.4734H22.4743H22.4752H22.4761H22.477H22.4779H22.4788H22.4797H22.4806H22.4815H22.4825H22.4834H22.4843H22.4852H22.4861H22.487H22.4879H22.4888H22.4897H22.4906H22.4915H22.4924H22.4933H22.4942H22.4951H22.496H22.4969H22.4978H22.4987H22.4996H22.5005H22.5014H22.5023H22.5032H22.5042H22.5051H22.506H22.5069H22.5078H22.5087H22.5096H22.5105H22.5114H22.5123H22.5132H22.5141H22.515H22.5159H22.5168H22.5177H22.5186H22.5195H22.5204H22.5213H22.5222H22.5231H22.524H22.5249H22.5259H22.5268H22.5277H22.5286H22.5295H22.5304H22.5313H22.5322H22.5331H22.534H22.5349H22.5358H22.5367H22.5376H22.5385H22.5394H22.5403H22.5412H22.5421H22.543H22.5439H22.5448H22.5457H22.5466H22.5476H22.5485H22.5494H22.5503H22.5512H22.5521H22.553H22.5539H22.5548H22.5557H22.5566H22.5575H22.5584H22.5593H22.5602H22.5611H22.562H22.5629H22.5638H22.5647H22.5656H22.5665H22.5674H22.5683H22.5692H22.5702H22.5711H22.572H22.5729H22.5738H22.5747H22.5756H22.5765H22.5774H22.5783H22.5792H22.5801H22.581H22.5819H22.5828H22.5837H22.5846H22.5855H22.5864H22.5873H22.5882H22.5891H22.59H22.5909H22.5919H22.5928H22.5937H22.5946H22.5955H22.5964H22.5973H22.5982H22.5991H22.6H22.6009H22.6018H22.6027H22.6036H22.6045H22.6054H22.6063H22.6072H22.6081H22.609H22.6099H22.6108H22.6117H22.6126H22.6136H22.6145H22.6154H22.6163H22.6172H22.6181H22.619H22.6199H22.6208H22.6217H22.6226H22.6235H22.6244H22.6253H22.6262H22.6271H22.628H22.6289H22.6298H22.6307H22.6316H22.6325H22.6334H22.6343H22.6352H22.6362H22.6371H22.638H22.6389H22.6398H22.6407H22.6416H22.6425H22.6434H22.6443H22.6452H22.6461H22.647H22.6479H22.6488H22.6497H22.6506H22.6515H22.6524H22.6533H22.6542H22.6551H22.656H22.6569H22.6579H22.6588H22.6597H22.6606H22.6615H22.6624H22.6633H22.6642H22.6651H22.666H22.6669H22.6678H22.6687H22.6696H22.6705H22.6714H22.6723H22.6732H22.6741H22.675H22.6759H22.6768H22.6777H22.6786H22.6796H22.6805H22.6814H22.6823H22.6832H22.6841H22.685H22.6859H22.6868H22.6877H22.6886H22.6895H22.6904H22.6913H22.6922H22.6931H22.694H22.6949H22.6958H22.6967H22.6976H22.6985H22.6994H22.7003H22.7012H22.7022H22.7031H22.704H22.7049H22.7058H22.7067H22.7076H22.7085H22.7094H22.7103H22.7112H22.7121H22.713H22.7139H22.7148H22.7157H22.7166H22.7175H22.7184H22.7193H22.7202H22.7211H22.722H22.7229H22.7239H22.7248H22.7257H22.7266H22.7275H22.7284H22.7293H22.7302H22.7311H22.732H22.7329H22.7338H22.7347H22.7356H22.7365H22.7374H22.7383H22.7392H22.7401H22.741H22.7419H22.7428H22.7437H22.7446H22.7456H22.7465H22.7474H22.7483H22.7492H22.7501H22.751H22.7519H22.7528H22.7537H22.7546H22.7555H22.7564H22.7573H22.7582H22.7591H22.76H22.7609H22.7618H22.7627H22.7636H22.7645H22.7654H22.7663H22.7672H22.7682H22.7691H22.77H22.7709H22.7718H22.7723C23.1984 5.39202 23.4943 5.70929 23.5 6.04453V6.04522V6.04667V6.04812V6.04957V6.05102V6.05247V6.05392V6.05537V6.05682V6.05828V6.05973V6.06118V6.06264V6.06409V6.06555V6.067V6.06846V6.06992V6.07137V6.07283V6.07429V6.07575V6.07721V6.07867V6.08013V6.08159V6.08305V6.08451V6.08597V6.08743V6.0889V6.09036V6.09182V6.09329V6.09475V6.09622V6.09768V6.09915V6.10062V6.10208V6.10355V6.10502V6.10649V6.10796V6.10943V6.1109V6.11237V6.11384V6.11531V6.11678V6.11826V6.11973V6.1212V6.12268V6.12415V6.12563V6.1271V6.12858V6.13006V6.13153V6.13301V6.13449V6.13597V6.13745V6.13893V6.14041V6.14189V6.14337V6.14486V6.14634V6.14782V6.14931V6.15079V6.15228V6.15376V6.15525V6.15674V6.15822V6.15971V6.1612V6.16269V6.16418V6.16567V6.16716V6.16865V6.17014V6.17164V6.17313V6.17462V6.17612V6.17761V6.17911V6.18061V6.1821V6.1836V6.1851V6.1866V6.1881V6.1896V6.1911V6.1926V6.1941V6.1956V6.1971V6.19861V6.20011V6.20162V6.20312V6.20463V6.20614V6.20764V6.20915V6.21066V6.21217V6.21368V6.21519V6.2167V6.21821V6.21972V6.22124V6.22275V6.22427V6.22578V6.2273V6.22881V6.23033V6.23185V6.23337V6.23488V6.2364V6.23793V6.23945V6.24097V6.24249V6.24401V6.24554V6.24706V6.24859V6.25011V6.25164V6.25317V6.25469V6.25622V6.25775V6.25928V6.26081V6.26234V6.26388V6.26541V6.26694V6.26848V6.27001V6.27155V6.27308V6.27462V6.27616V6.2777V6.27923V6.28077V6.28231V6.28386V6.2854V6.28694V6.28848V6.29003V6.29157V6.29312V6.29466V6.29621V6.29776V6.29931V6.30086V6.30241V6.30396V6.30551V6.30706V6.30862V6.31017V6.31172V6.31328V6.31484V6.31639V6.31795V6.31951V6.32107V6.32263V6.32419V6.32575V6.32731V6.32888V6.33044V6.332V6.33357V6.33514V6.3367V6.33827V6.33984V6.34141V6.34298V6.34455V6.34612V6.34769V6.34927V6.35084V6.35242V6.35399V6.35557V6.35715V6.35872V6.3603V6.36188V6.36346V6.36505V6.36663V6.36821V6.36979V6.37138V6.37297V6.37455V6.37614V6.37773V6.37932V6.38091V6.3825V6.38409V6.38568V6.38727V6.38887V6.39046V6.39206V6.39365V6.39525V6.39685V6.39845V6.40005V6.40165V6.40325V6.40485V6.40646V6.40806V6.40967V6.41127V6.41288V6.41449V6.4161V6.41771V6.41932V6.42093V6.42254V6.42415V6.42577V6.42738V6.429V6.43062V6.43223V6.43385V6.43547V6.43709V6.43871V6.44034V6.44196V6.44358V6.44521V6.44683V6.44846V6.45009V6.45172V6.45335V6.45498V6.45661V6.45824V6.45987V6.46151V6.46314V6.46478V6.46641V6.46805V6.46969V6.47133V6.47297V6.47461V6.47626V6.4779V6.47954V6.48119V6.48284V6.48448V6.48613V6.48778V6.48943V6.49108V6.49273V6.49439V6.49604V6.4977V6.49935V6.50101V6.50267V6.50433V6.50599V6.50765V6.50931V6.51097V6.51264V6.5143V6.51597V6.51763V6.5193V6.52097V6.52264V6.52431V6.52598V6.52766V6.52933V6.53101V6.53268V6.53436V6.53604V6.53772V6.5394V6.54108V6.54276V6.54444V6.54613V6.54781V6.5495V6.55118V6.55287V6.55456V6.55625V6.55794V6.55964V6.56133V6.56302V6.56472V6.56642V6.56811V6.56981V6.57151V6.57321V6.57491V6.57662V6.57832V6.58003V6.58173V6.58344V6.58515V6.58686V6.58857V6.59028V6.59199V6.59371V6.59542V6.59714V6.59885V6.60057V6.60229V6.60401V6.60573V6.60745V6.60918V6.6109V6.61263V6.61435V6.61608V6.61781V6.61954V6.62127V6.623V6.62474V6.62647V6.62821V6.62994V6.63168V6.63342V6.63516V6.6369V6.63864V6.64039V6.64213V6.64388V6.64563V6.64737V6.64912V6.65087V6.65262V6.65438V6.65613V6.65789V6.65964V6.6614V6.66316V6.66492V6.66668V6.66844V6.6702V6.67197V6.67373V6.6755V6.67727V6.67903V6.6808V6.68257V6.68435V6.68612V6.6879V6.68967V6.69145V6.69323V6.69501V6.69679V6.69857V6.70035V6.70214V6.70392V6.70571V6.70749V6.70928V6.71107V6.71287V6.71466V6.71645V6.71825V6.72004V6.72184V6.72364V6.72544V6.72724V6.72904V6.73085V6.73265V6.73446V6.73626V6.73807V6.73988V6.74169V6.7435V6.74532V6.74713V6.74895V6.75077V6.75258V6.7544V6.75622V6.75805V6.75987V6.76169V6.76352V6.76535V6.76718V6.76901V6.77084V6.77267V6.7745V6.77634V6.77817V6.78001V6.78185V6.78369V6.78553V6.78737V6.78922V6.79106V6.79291V6.79475V6.7966V6.79845V6.8003V6.80216V6.80401V6.80587V6.80772V6.80958V6.81144V6.8133V6.81516V6.81703V6.81889V6.82076V6.82262V6.82449V6.82636V6.82823V6.8301V6.83198V6.83385V6.83573V6.83761V6.83949V6.84137V6.84325V6.84513V6.84701V6.8489V6.85079V6.85268V6.85457V6.85646V6.85835V6.86024V6.86214V6.86404V6.86593V6.86783V6.86973V6.87163V6.87182C23.4877 7.22661 23.1752 7.55569 22.7308 7.56639H22.1974H21.742L21.6995 8.01982C21.6824 8.20263 21.7474 8.34675 21.7909 8.42536C21.8296 8.49519 21.8786 8.55938 21.9027 8.59098C21.9029 8.59119 21.903 8.5914 21.9032 8.5916C22.4347 9.35807 22.7002 10.2572 22.6676 11.1664L22.6673 11.1754V11.1844V16.8198C22.6673 17.1682 22.3588 17.5 21.9157 17.5H20.3017C19.8585 17.5 19.5501 17.1682 19.5501 16.8198V15.9329V15.3267L18.955 15.442L19.0501 15.9329L18.955 15.442L18.9549 15.4421L18.9543 15.4422L18.952 15.4426L18.9426 15.4444L18.9046 15.4517C18.871 15.4581 18.8213 15.4675 18.7569 15.4795C18.6282 15.5035 18.4412 15.5379 18.209 15.5792C17.7443 15.6618 17.0992 15.772 16.3777 15.8821C14.9249 16.1037 13.1961 16.3198 12.0012 16.3198C10.8064 16.3198 9.07753 16.1037 7.6248 15.8821C6.90327 15.772 6.25817 15.6618 5.79348 15.5792C5.56122 15.5379 5.37422 15.5035 5.24551 15.4795C5.18117 15.4675 5.1314 15.4581 5.09785 15.4517L5.05989 15.4444L5.05042 15.4426L5.04812 15.4422L5.04759 15.4421L5.04749 15.442L4.95234 15.9329L5.04748 15.442L4.45234 15.3267V15.9329V16.8198C4.45234 17.1682 4.14391 17.5 3.70079 17.5H2.08185C1.63872 17.5 1.33029 17.1682 1.33029 16.8198V11.1844V11.1772L1.33008 11.17C1.30396 10.2628 1.57452 9.3674 2.1091 8.60527L2.10932 8.60495C2.15624 8.53796 2.20529 8.47554 2.25637 8.41748L2.987 7.58718H1.88101H1.2751C0.823201 7.5792 0.506742 7.24226 0.5 6.88219V6.88055V6.87867V6.87679V6.87492V6.87305V6.87117V6.8693V6.86743V6.86556V6.8637V6.86183V6.85996V6.8581V6.85624V6.85437V6.85251V6.85065V6.84879V6.84694V6.84508V6.84323V6.84137V6.83952V6.83767V6.83582V6.83397V6.83212V6.83027V6.82842V6.82658V6.82474V6.82289V6.82105V6.81921V6.81737V6.81553V6.8137V6.81186V6.81002V6.80819V6.80636V6.80453V6.8027V6.80087V6.79904V6.79721V6.79538V6.79356V6.79174V6.78991V6.78809V6.78627V6.78445V6.78263V6.78082V6.779V6.77718V6.77537V6.77356V6.77175V6.76993V6.76812V6.76632V6.76451V6.7627V6.7609V6.75909V6.75729V6.75549V6.75369V6.75189V6.75009V6.74829V6.74649V6.7447V6.7429V6.74111V6.73932V6.73752V6.73573V6.73394V6.73216V6.73037V6.72858V6.7268V6.72501V6.72323V6.72145V6.71967V6.71789V6.71611V6.71433V6.71255V6.71078V6.709V6.70723V6.70546V6.70369V6.70192V6.70015V6.69838V6.69661V6.69485V6.69308V6.69132V6.68955V6.68779V6.68603V6.68427V6.68251V6.68075V6.679V6.67724V6.67548V6.67373V6.67198V6.67023V6.66847V6.66672V6.66498V6.66323V6.66148V6.65973V6.65799V6.65625V6.6545V6.65276V6.65102V6.64928V6.64754V6.6458V6.64407V6.64233V6.6406V6.63886V6.63713V6.6354V6.63367V6.63194V6.63021V6.62848V6.62675V6.62503V6.6233V6.62158V6.61986V6.61813V6.61641V6.61469V6.61297V6.61125V6.60954V6.60782V6.60611V6.60439V6.60268V6.60097V6.59926V6.59754V6.59584V6.59413V6.59242V6.59071V6.58901V6.5873V6.5856V6.5839V6.58219V6.58049V6.57879V6.5771V6.5754V6.5737V6.572V6.57031V6.56861V6.56692V6.56523V6.56354V6.56185V6.56016V6.55847V6.55678V6.5551V6.55341V6.55173V6.55004V6.54836V6.54668V6.545V6.54332V6.54164V6.53996V6.53828V6.5366V6.53493V6.53325V6.53158V6.52991V6.52824V6.52656V6.52489V6.52323V6.52156V6.51989V6.51822V6.51656V6.51489V6.51323V6.51157V6.5099V6.50824V6.50658V6.50492V6.50327V6.50161V6.49995V6.4983V6.49664V6.49499V6.49333V6.49168V6.49003V6.48838V6.48673V6.48508V6.48344V6.48179V6.48014V6.4785V6.47685V6.47521V6.47357V6.47193V6.47029V6.46865V6.46701V6.46537V6.46373V6.4621V6.46046V6.45883V6.45719V6.45556V6.45393V6.4523V6.45067V6.44904V6.44741V6.44578V6.44415V6.44253V6.4409V6.43928V6.43765V6.43603V6.43441V6.43279V6.43117V6.42955V6.42793V6.42631V6.4247V6.42308V6.42146V6.41985V6.41824V6.41662V6.41501V6.4134V6.41179V6.41018V6.40857V6.40697V6.40536V6.40375V6.40215V6.40054V6.39894V6.39734V6.39573V6.39413V6.39253V6.39093V6.38934V6.38774V6.38614V6.38454V6.38295V6.38135V6.37976V6.37817V6.37657V6.37498V6.37339V6.3718V6.37021V6.36862V6.36704V6.36545V6.36386V6.36228V6.36069V6.35911V6.35753V6.35595V6.35437V6.35278V6.3512V6.34963V6.34805V6.34647V6.34489V6.34332V6.34174V6.34017V6.3386V6.33702V6.33545V6.33388V6.33231V6.33074V6.32917V6.3276V6.32604V6.32447V6.3229V6.32134V6.31977V6.31821V6.31665V6.31508V6.31352V6.31196V6.3104V6.30884V6.30729V6.30573V6.30417V6.30261V6.30106V6.2995V6.29795V6.2964V6.29484V6.29329V6.29174V6.29019V6.28864V6.28709V6.28555V6.284V6.28245V6.28091V6.27936V6.27782V6.27627V6.27473V6.27319V6.27165V6.2701V6.26856V6.26702V6.26549V6.26395V6.26241V6.26087V6.25934V6.2578V6.25627V6.25473V6.2532V6.25167V6.25014V6.24861V6.24708V6.24555V6.24402V6.24249V6.24096V6.23943V6.23791V6.23638V6.23486V6.23333V6.23181V6.23029V6.22877V6.22724V6.22572V6.2242V6.22268V6.22117V6.21965V6.21813V6.21661V6.2151V6.21358V6.21207V6.21055V6.20904V6.20753V6.20602V6.2045V6.20299V6.20148V6.19997V6.19847V6.19696V6.19545V6.19394V6.19244V6.19093V6.18943V6.18792V6.18642V6.18492V6.18341V6.18191V6.18041V6.17891V6.17741V6.17591V6.17441V6.17292V6.17142V6.16992V6.16843V6.16693V6.16544V6.16394V6.16245V6.16096V6.15947V6.15797V6.15648V6.15499V6.1535V6.15201V6.15053V6.14904V6.14755V6.14606V6.14458V6.14309V6.14161V6.14012V6.13864V6.13716V6.13568V6.13419V6.13271V6.13123V6.12975V6.12827V6.1268V6.12532V6.12384V6.12236V6.12089V6.11941V6.11794V6.11646V6.11499V6.11351V6.11204V6.11057V6.1091V6.10763V6.10616V6.10469V6.10322V6.10175V6.10028V6.09881V6.09735V6.09588V6.09441V6.09295V6.09148V6.09002V6.08856V6.08709V6.08563V6.08417V6.08271V6.08125V6.07979V6.07833V6.07687V6.07541V6.07395V6.07249V6.07104V6.06958V6.06812V6.06667V6.06521V6.06376V6.06231V6.06085V6.0594V6.05795V6.0565V6.05505V6.0536V6.05215V6.05141C0.505718 5.71619 0.801578 5.39894 1.2277 5.393H1.22823H1.22914H1.23004H1.23094H1.23185H1.23275H1.23366H1.23456H1.23546H1.23637H1.23727H1.23818H1.23908H1.23998H1.24089H1.24179H1.2427H1.2436H1.24451H1.24541H1.24631H1.24722H1.24812H1.24903H1.24993H1.25083H1.25174H1.25264H1.25355H1.25445H1.25535H1.25626H1.25716H1.25807H1.25897H1.25988H1.26078H1.26168H1.26259H1.26349H1.2644H1.2653H1.2662H1.26711H1.26801H1.26892H1.26982H1.27072H1.27163H1.27253H1.27344H1.27434H1.27524H1.27615H1.27705H1.27796H1.27886H1.27977H1.28067H1.28157H1.28248H1.28338H1.28429H1.28519H1.28609H1.287H1.2879H1.28881H1.28971H1.29061H1.29152H1.29242H1.29333H1.29423H1.29514H1.29604H1.29694H1.29785H1.29875H1.29966H1.30056H1.30146H1.30237H1.30327H1.30418H1.30508H1.30598H1.30689H1.30779H1.3087H1.3096H1.31051H1.31141H1.31231H1.31322H1.31412H1.31503H1.31593H1.31683H1.31774H1.31864H1.31955H1.32045H1.32135H1.32226H1.32316H1.32407H1.32497H1.32588H1.32678H1.32768H1.32859H1.32949H1.3304H1.3313H1.3322H1.33311H1.33401H1.33492H1.33582H1.33672H1.33763H1.33853H1.33944H1.34034H1.34124H1.34215H1.34305H1.34396H1.34486H1.34577H1.34667H1.34757H1.34848H1.34938H1.35029H1.35119H1.35209H1.353H1.3539H1.35481H1.35571H1.35661H1.35752H1.35842H1.35933H1.36023H1.36114H1.36204H1.36294H1.36385H1.36475H1.36566H1.36656H1.36746H1.36837H1.36927H1.37018H1.37108H1.37198H1.37289H1.37379H1.3747H1.3756H1.37651H1.37741H1.37831H1.37922H1.38012H1.38103H1.38193H1.38283H1.38374H1.38464H1.38555H1.38645H1.38735H1.38826H1.38916H1.39007H1.39097H1.39188H1.39278H1.39368H1.39459H1.39549H1.3964H1.3973H1.3982H1.39911H1.40001H1.40092H1.40182H1.40272H1.40363H1.40453H1.40544H1.40634H1.40725H1.40815H1.40905H1.40996H1.41086H1.41177H1.41267H1.41357H1.41448H1.41538H1.41629H1.41719H1.41809H1.419H1.4199H1.42081H1.42171H1.42261H1.42352H1.42442H1.42533H1.42623H1.42714H1.42804H1.42894H1.42985H1.43075H1.43166H1.43256H1.43346H1.43437H1.43527H1.43618H1.43708H1.43798H1.43889H1.43979H1.4407H1.4416H1.44251H1.44341H1.44431H1.44522H1.44612H1.44703H1.44793H1.44883H1.44974H1.45064H1.45155H1.45245H1.45335H1.45426H1.45516H1.45607H1.45697H1.45788H1.45878H1.45968H1.46059H1.46149H1.4624H1.4633H1.4642H1.46511H1.46601H1.46692H1.46782H1.46872H1.46963H1.47053H1.47144H1.47234H1.47325H1.47415H1.47505H1.47596H1.47686H1.47777H1.47867H1.47957H1.48048H1.48138H1.48229H1.48319H1.48409H1.485H1.4859H1.48681H1.48771H1.48861H1.48952H1.49042H1.49133H1.49223H1.49314H1.49404H1.49494H1.49585H1.49675H1.49766H1.49856H1.49946H1.50037H1.50127H1.50218H1.50308H1.50398H1.50489H1.50579H1.5067H1.5076H1.50851H1.50941H1.51031H1.51122H1.51212H1.51303H1.51393H1.51483H1.51574H1.51664H1.51755H1.51845H1.51935H1.52026H1.52116H1.52207H1.52297H1.52388H1.52478H1.52568H1.52659H1.52749H1.5284H1.5293H1.5302H1.53111H1.53201H1.53292H1.53382H1.53472H1.53563H1.53653H1.53744H1.53834H1.53925H1.54015H1.54105H1.54196H1.54286H1.54377H1.54467H1.54557H1.54648H1.54738H1.54829H1.54919H1.55009H1.551H1.5519H1.55281H1.55371H1.55462H1.55552H1.55642H1.55733H1.55823H1.55914H1.56004H1.56094H1.56185H1.56275H1.56366H1.56456H1.56546H1.56637H1.56727H1.56818H1.56908H1.56998H1.57089H1.57179H1.5727H1.5736H1.57451H1.57541H1.57631H1.57722H1.57812H1.57903H1.57993H1.58083H1.58174H1.58264H1.58355H1.58445H1.58535H1.58626H1.58716H1.58807H1.58897H1.58988H1.59078H1.59168H1.59259H1.59349H1.5944H1.5953H1.5962H1.59711H1.59801H1.59892H1.59982H1.60072H1.60163H1.60253H1.60344H1.60434H1.60525H1.60615H1.60705H1.60796H1.60886H1.60977H1.61067H1.61157H1.61248H1.61338H1.61429H1.61519H1.61609H1.617H1.6179H1.61881H1.61971H1.62062H1.62152H1.62242H1.62333H1.62423H1.62514H1.62604H1.62694H1.62785H1.62875H1.62966H1.63056H1.63146H1.63237H1.63327H1.63418H1.63508H1.63598H1.63689H1.63779H1.6387H1.6396H1.64051H1.64141H1.64231H1.64322H1.64412H1.64503H1.64593H1.64683H1.64774H1.64864H1.64955H1.65045H1.65135H1.65226H1.65316H1.65407H1.65497H1.65588H1.65678H1.65768H1.65859H1.65949H1.6604H1.6613H1.6622H1.66311H1.66401H1.66492H1.66582H1.66672H1.66763H1.66853H1.66944H1.67034H1.67125H1.67215H1.67305H1.67396H1.67486H1.67529C2.08249 5.41428 2.46179 5.57746 2.74089 5.84372L3.26699 6.34563L3.54736 5.67474Z" stroke="#979797"/>
<path fill-rule="evenodd" clip-rule="evenodd" d="M4.26527 11.5572C4.43978 12.0367 4.99342 12.2753 5.50186 12.0903L7.65608 11.3062C8.09705 11.1249 8.34929 10.6711 8.25358 10.2312C8.15787 9.79142 7.742 9.49337 7.26851 9.52525L4.92075 9.77759C4.62202 9.81065 4.35069 9.97292 4.18516 10.2175C4.01964 10.4621 3.97839 10.7617 4.07332 11.0298L4.26527 11.5572Z" fill="#9E9E9E"/>
<ellipse cx="3" cy="16.5" rx="2" ry="1.5" fill="#9E9E9E"/>
<ellipse cx="21" cy="16.5" rx="2" ry="1.5" fill="#9E9E9E"/>
<ellipse cx="22" cy="6.5" rx="2" ry="1.5" fill="#9E9E9E"/>
<ellipse cx="2" cy="6.5" rx="2" ry="1.5" fill="#9E9E9E"/>
<path fill-rule="evenodd" clip-rule="evenodd" d="M15.7564 10.1124C15.5819 10.5918 15.8526 11.1305 16.361 11.3156L18.5153 12.0997C19.0237 12.2847 19.5773 12.0461 19.7518 11.5666L19.9462 11.0327C20.0411 10.7646 19.9998 10.465 19.8343 10.2204C19.6688 9.97579 19.3975 9.81351 19.0987 9.78046L16.751 9.52811C16.3106 9.47936 15.9022 9.71925 15.7564 10.1124Z" fill="#9E9E9E"/>
<path d="M3.18896 6.93408L12.1719 7.93408L21.6157 6.93408" stroke="#979797"/>
</svg>

<svg width="24" height="18" fill="none" xmlns="http://www.w3.org/2000/svg"><path d="M1.252 8.087a4.82 4.82 0 0 1 .02-.028l-.02.028Zm0 0C.562 8.067.009 7.539 0 6.887l1.252 1.2Zm2.295-2.412c.59-1.411 1.331-2.946 1.755-3.53C6.016 1.177 7.063.89 7.87.755a25.146 25.146 0 0 1 4.12-.25H12.012c1.377-.03 2.754.055 4.114.25.805.133 1.855.428 2.57 1.39.206.28.495.8.816 1.451.316.642.649 1.38.943 2.073l.282.666.523-.5a1.67 1.67 0 0 1 1.066-.45H22.772c.426.006.722.323.728.659V6.872c-.012.355-.325.684-.77.694h-.988l-.043.454a.7.7 0 0 0 .092.405c.039.07.088.134.112.166.532.767.797 1.666.765 2.575v5.654c0 .348-.31.68-.752.68h-1.614c-.444 0-.752-.332-.752-.68V15.327l-.595.115.095.49-.095-.49h-.003l-.01.002-.037.008a37.912 37.912 0 0 1-.696.127c-.465.083-1.11.193-1.831.303-1.453.222-3.182.438-4.377.438-1.195 0-2.923-.216-4.376-.438a76.863 76.863 0 0 1-2.527-.43l-.038-.008-.01-.001h-.002v-.001l-.096.49.095-.49-.595-.115V16.82c0 .348-.308.68-.751.68H2.08c-.442 0-.75-.332-.75-.68V11.17a4.247 4.247 0 0 1 .778-2.565c.047-.067.096-.13.147-.188l.731-.83H1.275C.823 7.58.507 7.242.5 6.882V6.052c.006-.336.302-.653.728-.659H1.675a1.67 1.67 0 0 1 1.066.45l.526.503.28-.671Z" stroke="#979797"/><path fill-rule="evenodd" clip-rule="evenodd" d="M4.265 11.557c.175.48.728.718 1.237.533l2.154-.784c.441-.181.693-.635.598-1.075-.096-.44-.512-.738-.985-.706l-2.348.253c-.299.033-.57.195-.736.44a.907.907 0 0 0-.112.812l.192.527Z" fill="#9E9E9E"/><ellipse cx="3" cy="16.5" rx="2" ry="1.5" fill="#9E9E9E"/><ellipse cx="21" cy="16.5" rx="2" ry="1.5" fill="#9E9E9E"/><ellipse cx="22" cy="6.5" rx="2" ry="1.5" fill="#9E9E9E"/><ellipse cx="2" cy="6.5" rx="2" ry="1.5" fill="#9E9E9E"/><path fill-rule="evenodd" clip-rule="evenodd" d="M15.756 10.112c-.174.48.097 1.018.605 1.204l2.154.784c.509.185 1.062-.054 1.237-.533l.194-.534a.907.907 0 0 0-.112-.813 1.026 1.026 0 0 0-.735-.44l-2.348-.252c-.44-.049-.849.191-.995.584Z" fill="#9E9E9E"/><path d="m3.189 6.934 8.983 1 9.444-1" stroke="#979797"/></svg>
